X:225
T:Polska efter Johannes Svensson (SvL Småland 225)
R:Polska
R:Slängpolska
O:Markaryd, Småland
S:Efter Nils Bernhard Ljunggren
S:Efter Johannes Svensson
B:Svenska Låtar Småland
Z:Till abc Jonas Brunskog
M:3/4
L:1/16
K:F
f2fg eceg g2f2|c2cA cBAG G2F2|f2fg eceg g2f2|c2cA cBAG G2F2|
fefg a2af a2af|c2eg bgeg g2f2|fefg a2af a2af|c2eg bgeg g2f2|
fefg ageg fcAc|cBAG G2F2 F4:| |:c2cd B2Bc F4-|FGAB cBAG G2F2|
c2cd B2Bc F4-|FGAB cBAG G2F2|fefg agfe fcAc|cBAG G2F2 F4:|

